icons/1_Primary/Optery.svg

<svg width="1024" height="1024" fill="none" xmlns="http://www.w3.org/2000/svg"><g clip-path="url(#a)"><path d="M512 1024c282.77 0 512-229.23 512-512S794.77 0 512 0 0 229.23 0 512s229.23 512 512 512Z" fill="#728DBE"/><path d="M749.47 330.15 512 257.27l-237.47 72.88V530C274.53 727.5 512 802.73 512 802.73s237.47-77.59 237.47-275.08v-197.5ZM514.35 668.72c-82.29 0-148.12-68.18-148.12-152.82 0-84.64 65.83-152.82 148.12-152.82 79.94 0 148.12 70.53 148.12 152.82 0 84.63-65.83 152.82-148.12 152.82ZM596.64 483 488.49 584.08 429.71 530l18.81-23.51 40 37.62 89.34-82.29L596.64 483Z" fill="#fff"/></g><defs><clipPath id="a"><path fill="#fff" d="M0 0h1024v1024H0z"/></clipPath></defs></svg>

<svg width="1024" height="1024" viewBox="0 0 1024 1024" fill="none" xmlns="http://www.w3.org/2000/svg">
<g clip-path="url(#clip0_2_3057)">
<path d="M512 1024C794.77 1024 1024 794.77 1024 512C1024 229.23 794.77 0 512 0C229.23 0 0 229.23 0 512C0 794.77 229.23 1024 512 1024Z" fill="#728DBE"/>
<path d="M749.47 330.15L512 257.27L274.53 330.15V530C274.53 727.5 512 802.73 512 802.73C512 802.73 749.47 725.14 749.47 527.65V330.15ZM514.35 668.72C432.06 668.72 366.23 600.54 366.23 515.9C366.23 431.26 432.06 363.08 514.35 363.08C594.29 363.08 662.47 433.61 662.47 515.9C662.47 600.53 596.64 668.72 514.35 668.72ZM596.64 483L488.49 584.08L429.71 530L448.52 506.49L488.52 544.11L577.86 461.82L596.64 483Z" fill="white"/>
</g>
<defs>
<clipPath id="clip0_2_3057">
<rect width="1024" height="1024" fill="white"/>
</clipPath>
</defs>
</svg>
